X:1
T:Title
%%score { ( 1 3 5 ) | ( 2 4 ) }
L:1/8
Q:1/4=110
M:4/4
K:F
V:1 treble nm="Grand Piano"
V:3 treble 
V:5 treble 
V:2 bass 
V:4 bass 
V:1
 F2 C2 [CF]2 [EG]2 | A4 F4 | A2 F2 A2 [F=B]2 | c8 | d2 d2 c2 A2 | B4 A4 | G2 G2 G2 d2 | [CEc]8 | %8
w: Frank~M.~Jeffery * * *||||||||
 [Ed]2 [EB]2 [EA]2 [EG]2 | [Fc]4 [FA]4 | [EB]2 [EA]2 [EG]2 F2 | E8 | %12
w: ||||
 [A,EA]2 [A,EA]2 [A,EA]2 [A,^CE]2 | [A,DG]4 [A,DF]4 | [G,CEG]2 [EGc]2 [=Be]3 d | [CEc]8 | %16
w: ||||
 [Ac]4 z4 | [B,E]4 [B,D]4 | d4 z4 | F4 E4 | [ce]3 d [CAc]2 [CEB]2 | [CFA]2 [_E^Fc]2 [DGB]2 [DG]2 | %22
w: ||||||
 [Fc]4 [CE]4 |[M:6/4] [A,CF]12 |] %24
w: ||
V:2
 [F,A,C]2 [F,A,]2 [A,,F,]2 [C,C]2 | [F,CF]4 [F,A,C]4 | [F,CF]2 [F,A,C]2 [F,A,F]2 [D,G,]2 | %3
 G,4 A,2 B,2 | [B,CE]2 [B,CE]2 [A,CF]2 [F,CF]2 | [G,CE]4 [F,CF]4 | %6
 [G,CE]2 [G,CE]2 [G,DF]2 [G,=B,F]2 | C,8 | [C,B,]2 [C,G,]2 [C,C]2 [C,B,]2 | [F,A,]4 [F,C]4 | %10
 [C,G,]2 [C,C]2 [C,B,]2 [C,A,C]2 | [G,B,]2 A,2 A,2 G,2 | ^C,2 C,2 C,2 A,,2 | D,4 D,4 | %14
 G,,2 [G,,G,]2 [G,,G,]2 z[K:treble] =B | C,2 B,,2 A,,2 G,,2 | [F,,C,]2 z F [F,,C,]2 [A,,F,]2 | %17
 [B,,F,]2 F,,2 B,,2 F,,2 | [B,,G,]2 z[K:treble] B[K:bass] [B,,G,]2 [=B,,G,]2 | %19
 [C,A,C]2 [C,_A,=B,]2 [C,G,C]2 [C,G,]2 | [C,,C,]2 z[K:treble] B[K:bass] [F,,F,]2 [C,,C,]2 | %21
 [F,,F,]2 [A,,A,]2 [B,,G,]2 [=B,,G,]2 | [C,A,C]4 [C,B,]4 |[M:6/4] [F,,C,]12 |] %24
V:3
 x8 | x8 | x8 | E4 F2 G2 | x8 | x8 | x8 | x8 | x8 | x8 | x8 | z2 D2 C2 B,2 | x8 | x8 | z4 F2 F2 | %15
 x8 | C2 z A [A,CG]2 [CF]2 | z2 F,2 F,2 F,2 | [DG]2 [G,DG]2 [DA]2 [DG]2 | z2 D2 z2 C2 | E2 E2 z4 | %21
 x8 | x8 |[M:6/4] x12 |] %24
V:4
 x8 | x8 | x8 | C,8 | x8 | x8 | x8 | z2 C,,2 C,,2 C,,2 | x8 | x8 | x8 | C,8 | x8 | x8 | %14
 z4 z2 [G,,G,]2[K:treble] | x8 | z2 [C,,C,]2 z4 | x8 | z2 G,,2[K:treble][K:bass] z4 | x8 | %20
 z2 [E,,E,]2[K:treble][K:bass] z4 | x8 | x8 |[M:6/4] x12 |] %24
V:5
 x8 | x8 | x8 | x8 | x8 | x8 | x8 | x8 | x8 | x8 | x8 | x8 | x8 | x8 | x8 | x8 | z2 C2 z4 | x8 | %18
 x8 | x8 | x8 | x8 | x8 |[M:6/4] x12 |] %24

